src/icons/dinophp.svg

<svg
  viewBox="0 0 1424.1 1368"
  xml:space="preserve"
  xmlns="http://www.w3.org/2000/svg"
>
  <g fill="#ff5252" stroke-width="1.05">
    <path
      class="st0"
      d="M1101.8 130.51c-12.441.289-30.445 1.731-55.957 5.878-32.232 5.25-56.168 11.548-61.523 12.914-39.16 10.394-67.506 22.153-93.018 32.757-14.383 5.984-33.282 13.859-56.589 25.932l-.734.42c-11.129 5.774-19.738 10.394-24.357 12.914l-2.414 1.258c-16.693 9.03-32.862 15.958-49.765 24.777 0 0-16.167 8.505-39.999 24.043-6.929 4.515-12.914 9.028-12.914 9.028a140.696 140.696 0 0 0-4.621 3.57c-5.67 4.514-10.917 9.554-15.641 15.118-4.515 5.25-11.025 12.81-15.33 23.518-7.034 17.113-4.723 32.86-3.673 40 1.47 9.133 4.513 28.66 19.841 41.68 11.758 10.182 25.618 11.864 33.807 12.704 50.079 4.62 98.163-5.354 129.03-9.344 41.47-5.249 73.071-2.31 98.269 0 45.984 4.305 96.587 9.028 148.87 42.1 12.388 7.873 45.67 30.446 74.436 72.021 12.598 18.163 31.811 45.985 39.16 85.985 7.244 39.895-.84 72.755 7.77 74.96 4.094 1.05 8.714-5.354 17.848-17.848a208.446 208.446 0 0 0 28.346-54.173c2.625-7.664 5.25-19.109 10.5-42.1 5.774-24.988 8.607-37.48 10.496-49.344 1.575-10.183 3.465-24.987 4.095-63.937.63-43.674.944-65.513-1.575-89.029-3.465-32.02-10.498-63.516-20.997-93.858-11.34-32.02-22.992-64.252-51.76-94.699-20.681-21.942-38.95-31.076-45.353-34.015-18.163-8.503-33.595-10.708-43.673-12.178-3.255-.472-10.133-1.338-22.574-1.05zm-100.67 82.398c12.105.117 20.275 2.825 22.244 9.046 5.25 16.588-23.937 48.503-74.436 64.46-50.499 15.854-117.38 7.034-122.62-9.554s41.47-31.39 91.969-47.243c31.562-9.908 62.671-16.905 82.847-16.709z"
    />
    <path
      class="st0"
      d="M925.47 442.64c1.785-5.354 27.401-1.47 37.27 0 27.926 4.2 55.433 8.399 88.189 25.932 23.517 12.493 59.107 36.85 85.774 80.105 5.25 8.399 30.026 49.869 33.176 110.03 2.94 54.908-13.858 95.748-22.677 116.53-37.06 87.349-106.04 132.7-139.42 154.02-22.887 14.593-81.575 48.714-161.05 57.953-40.735 4.724-94.698 3.884-96.798-6.72-.63-3.359 3.99-7.348 11.024-13.437 3.255-2.835 11.968-9.869 26.982-13.753 8.399-2.205 12.178-1.68 32.651-2.1 19.632-.42 29.396-.63 35.905-1.47 14.593-2.1 28.976-5.984 42.52-11.758 9.764-4.094 17.323-7.139 26.457-13.753a107.125 107.125 0 0 0 26.982-28.87c4.094-6.195 7.874-11.969 11.024-20.473 2.625-6.929 3.045-10.814 6.93-16.588 3.674-5.459 6.718-7.139 11.128-11.339 3.465-3.254 6.09-6.404 17.848-26.142 8.504-14.278 12.703-21.417 15.328-26.457 12.178-23.622 16.693-45.459 19.212-57.848 8.924-43.989 4.62-80.945 2.415-99.527-3.99-32.86-7.874-65.512-28.346-101.94-13.543-24.147-31.076-55.328-64.777-76.85-6.614-4.514-19.003-11.549-17.743-15.538z"
    />
    <path
      class="st0"
      d="M843.89 890.41s6.614-13.963 21.522-55.958c5.67-15.853 8.924-24.987 10.394-38.74 1.89-17.428-.21-31.286-4.41-58.687-1.05-7.244-2.624-14.383-4.829-21.417-1.575-5.04-3.044-8.294-7.664-18.898-12.073-27.192-14.803-32.336-20.052-38.635-8.084-9.659-13.018-11.024-14.803-11.339-7.979-1.575-17.848 2.205-20.787 8.924-2.624 5.984 1.05 12.388 5.04 20.052 0 0 5.774 11.234 19.108 46.089 7.139 18.793 7.769 34.646 8.189 47.559 1.574 46.719-17.953 82.099-24.462 93.438-17.848 31.286-40 49.134-56.273 61.942-34.121 26.772-70.761 41.47-89.448 48.924-29.921 11.968-44.724 14.173-57.428 30.76-9.87 12.914-11.758 26.038-15.013 48.19 0 0-5.46 38.005 9.343 82.099 2.73 8.294 5.88 15.433 12.913 20.262 10.08 6.824 22.572 4.62 32.756 2.834 13.858-2.414 26.982-8.084 39.265-13.333 9.764-4.199 16.588-7.769 24.672-5.354 3.465 1.05 6.72 3.045 11.34 7.77 10.603 11.023 16.272 24.356 19.841 37.584 5.985 21.837 9.24 34.121 2.415 40.84-7.349 7.244-23.937 5.67-34.016-.42-6.929-4.2-7.244-8.504-15.013-11.339-5.984-2.205-10.499-1.365-20.997-.42-8.714.735-17.533.84-26.247 1.26-22.887 1.155-34.33 1.68-44.094 1.26-13.438-.63-19.842-1.995-23.832 2.415-4.514 4.934-1.575 12.074-7.244 16.588-3.36 2.624-7.454 2.73-12.178 2.834-5.46.105-11.758-1.155-15.328-3.254-8.714-5.04-6.824-17.953-9.344-47.35-1.575-19.002-2.624-15.222-6.929-51.337-.84-7.98-2.1-15.853-3.884-23.622-1.68-7.454-2.835-10.08-4.62-18.058-1.575-7.034-2.834-14.278-3.674-21.417-1.26-10.29-4.305-29.081-11.34-65.932 0 0-13.752-59.002-4.409-78.53 3.045-6.3 7.664-8.084 7.664-8.084 1.26-.525 2.31-.525 6.93-.42 7.453.315 11.128.42 16.587 1.26 7.245 1.05 6.825 1.784 9.66 1.574 4.724-.315 9.133-2.204 12.492-5.354 5.46-5.354 4.935-13.438 5.145-20.262.104-3.15.21-.735 11.024-41.575 8.818-32.966 7.979-31.706 10.499-39.37 4.934-14.698 9.973-25.512 15.328-36.64 19.318-39.79 28.87-59.632 39.685-77.27 21.627-35.38 42.1-57.953 67.61-86.194 25.723-28.45 48.085-52.913 83.78-78.11 38.005-26.772 60.682-32.966 78.53-34.75 11.234-1.156 27.61-2.836 45.669 4.408 29.71 11.968 42.834 39.895 55.013 65.512 19.527 41.155 21.417 77.795 22.257 97.952 1.574 37.375-4.62 64.987-8.084 80.105-10.92 47.454-30.131 81.05-41.47 85.354-1.26.525-7.14 2.415-9.344 7.454-1.575 3.675-.525 7.245-.21 8.714 2.94 13.018-10.92 30.446-13.753 34.016-12.808 16.063-29.606 20.577-38.845 23.097-2.205.63-33.491 8.714-39.265-1.574-2.205-3.99.525-8.714 4.62-17.428z"
    />
    <path
      class="st0"
      d="M596.23 710.77c.105 4.095-.105 8.084-.42 12.178-1.785 21.207-8.819 33.806-17.953 54.803-9.974 22.992-15.853 36.43-20.787 55.853-3.15 12.388-7.244 24.462-9.554 37.06-2.73 14.908-2.624 21.627-8.189 25.092-6.089 3.78-10.814-1.68-29.396-2.1-9.658-.21-16.903 1.05-24.252 5.88-6.824 4.514-10.709 9.868-11.863 12.703a33.966 33.966 0 0 0-2.73 14.067c1.366 53.753.84 61.417-1.364 64.777-3.57 5.46-15.328 8.294-33.176 14.803-6.93 2.52-24.987 8.924-59.107 15.118-20.262 3.675-35.59 6.51-57.218 7.14-14.908.63-29.711 0-44.514-1.995-17.113-2.31-41.155-5.564-66.351-19.108-10.604-5.67-47.454-25.512-64.777-69.081-11.968-30.131-8.714-56.798-7.034-69.816a147.974 147.974 0 0 1 22.677-61.732c8.084-12.283 23.307-34.541 52.808-47.244 15.748-6.72 32.86-9.659 49.974-8.504 36.535 2.73 77.69 25.512 86.614 58.582 1.05 3.78 5.984 24.042-4.62 38.845-1.574 2.205-6.194 8.714-11.339 8.084-5.354-.63-7.139-8.294-14.593-22.152-6.194-11.549-9.343-17.323-14.803-22.677-14.488-14.068-34.54-14.068-36.64-14.068-21.207.315-34.75 13.858-40.42 19.422-4.304 4.304-21.522 21.837-20.997 49.134.105 3.465.735 25.827 17.848 43.674 18.268 19.213 43.15 20.472 57.218 20.997 32.231 1.26 58.162-10.919 85.774-26.982a334.14 334.14 0 0 0 8.084-4.83c48.4-30.235 88.19-64.566 112.34-87.558 16.588-15.853 21.522-21.942 41.89-40.42 15.853-14.383 18.268-15.643 27.296-25.092 7.98-8.4 13.543-15.223 24.252-23.832 4.83-3.99 9.974-7.664 15.328-11.024zM883.05 1024.2c1.995-1.47 6.194-1.47 15.013-1.575 6.194-.105-1.155 0 12.808-.105 9.659-.105 11.129.105 16.693 0 2.625-.105 3.36-.105 8.399-.315 3.36-.105 8.084-.21 11.339-.21 1.575 0 2.835 1.26 2.835 2.73v.105c-.105 6.09.21 12.283-.105 19.212-.105 3.045-.105 6.09 0 9.029a85.777 85.777 0 0 1 0 7.349c-.315 6.614-.42 23.202 4.094 47.874 1.155 6.3 2.205 11.444 6.51 15.958 6.298 6.614 15.537 7.139 21.521 7.559 12.493.84 22.572-3.045 34.121-7.56 15.433-6.088 18.478-10.078 26.247-8.923 2.835.42 9.239 1.785 17.218 10.814 5.88 6.614 8.61 12.913 13.858 25.302 2.835 6.404 5.145 12.913 7.034 19.738 3.36 12.388 4.935 18.583 2.94 22.677-5.67 11.338-37.06 4.724-43.254.84-2.835-1.785-6.09-4.2-6.09-4.2-1.89-1.364-3.464-2.624-4.514-3.464-3.884-3.045-6.719-5.144-7.664-5.984-.525-.42-1.155-.84-1.68-1.26-.314-.21-.63-.42-1.05-.63-1.364-.735-2.73-1.365-4.199-1.785-1.89-.735-3.884-1.365-5.984-1.68-1.575-.314-1.89-.105-9.449-.21h-4.724c-1.05 0-2.31.105-6.614.63-4.2.525-6.51.735-8.504 1.05l-6.615 1.155s-9.868 2.1-18.163 3.255c-3.57.525-4.094.42-7.139.945-4.41.84-6.614 1.154-7.559 1.89-4.41 3.359 1.68 12.177-1.574 18.582-4.725 8.924-26.877 11.13-35.695 1.575-3.465-3.674-3.885-8.189-4.41-12.703-2.415-20.577-5.984-40.945-7.874-61.522-.84-9.449-1.68-18.268-3.674-30.236-1.05-6.51-3.045-25.197-7.14-62.467-.524-3.674-1.05-10.394 3.045-13.438z"
    />
  </g>
</svg>

<svg viewBox="0 0 1425 1368" xmlns="http://www.w3.org/2000/svg">
  <path
    d="M1101.8 130.51C1089.36 130.799 1071.35 132.241 1045.84 136.388C1013.61 141.638 989.675 147.936 984.32 149.302C945.16 159.696 916.814 171.455 891.302 182.059C876.919 188.043 858.02 195.918 834.713 207.991L833.979 208.411C822.85 214.185 814.241 218.805 809.622 221.325L807.208 222.583C790.515 231.613 774.346 238.541 757.443 247.36C757.443 247.36 741.276 255.865 717.444 271.403C710.515 275.918 704.53 280.431 704.53 280.431C702.965 281.589 701.424 282.779 699.909 284.001C694.239 288.515 688.992 293.555 684.268 299.119C679.753 304.369 673.243 311.929 668.938 322.637C661.904 339.75 664.215 355.497 665.265 362.637C666.735 371.77 669.778 391.297 685.106 404.317C696.864 414.499 710.724 416.181 718.913 417.021C768.992 421.641 817.076 411.667 847.943 407.677C889.413 402.428 921.014 405.367 946.212 407.677C992.196 411.982 1042.8 416.705 1095.08 449.777C1107.47 457.65 1140.75 480.223 1169.52 521.798C1182.12 539.961 1201.33 567.783 1208.68 607.783C1215.92 647.678 1207.84 680.538 1216.45 682.743C1220.54 683.793 1225.16 677.389 1234.3 664.895C1246.36 648.329 1255.91 630.075 1262.64 610.722C1265.27 603.058 1267.89 591.613 1273.14 568.622C1278.92 543.634 1281.75 531.142 1283.64 519.278C1285.21 509.095 1287.1 494.291 1287.73 455.341C1288.36 411.667 1288.68 389.828 1286.16 366.312C1282.69 334.292 1275.66 302.796 1265.16 272.454C1253.82 240.434 1242.17 208.202 1213.4 177.755C1192.72 155.813 1174.45 146.679 1168.05 143.74C1149.88 135.237 1134.45 133.032 1124.37 131.562C1121.12 131.09 1114.24 130.224 1101.8 130.512L1101.8 130.51ZM1001.13 212.908C1013.23 213.025 1021.4 215.733 1023.37 221.954C1028.62 238.542 999.437 270.457 948.938 286.414C898.439 302.268 831.558 293.448 826.318 276.86C821.078 260.272 867.788 245.47 918.287 229.617C949.849 219.709 980.958 212.712 1001.13 212.908H1001.13Z"
    fill="#FF5252"
  />
  <path
    d="M925.47 442.64C927.255 437.286 952.871 441.17 962.74 442.64C990.666 446.84 1018.17 451.039 1050.93 468.572C1074.45 481.065 1110.04 505.422 1136.7 548.677C1141.95 557.076 1166.73 598.546 1169.88 658.707C1172.82 713.615 1156.02 754.455 1147.2 775.237C1110.14 862.586 1041.16 907.937 1007.78 929.257C984.895 943.85 926.207 977.971 846.732 987.21C805.997 991.934 752.034 991.094 749.934 980.49C749.304 977.131 753.924 973.142 760.958 967.053C764.213 964.218 772.926 957.184 787.94 953.3C796.339 951.095 800.118 951.62 820.591 951.2C840.223 950.78 849.987 950.57 856.496 949.73C871.089 947.63 885.472 943.746 899.016 937.972C908.78 933.878 916.339 930.833 925.473 924.219C936.179 916.352 945.329 906.562 952.455 895.349C956.549 889.154 960.329 883.38 963.479 874.876C966.104 867.947 966.524 864.062 970.409 858.288C974.083 852.829 977.127 851.149 981.537 846.949C985.002 843.695 987.627 840.545 999.385 820.807C1007.89 806.529 1012.09 799.39 1014.71 794.35C1026.89 770.728 1031.41 748.891 1033.93 736.502C1042.85 692.513 1038.54 655.557 1036.34 636.975C1032.35 604.115 1028.47 571.463 1007.99 535.035C994.451 510.888 976.918 479.707 943.217 458.185C936.603 453.671 924.214 446.636 925.474 442.647L925.47 442.64Z"
    fill="#FF5252"
  />
  <path
    d="M843.89 890.41C843.89 890.41 850.504 876.447 865.412 834.452C871.082 818.599 874.336 809.465 875.806 795.712C877.696 778.284 875.596 764.426 871.396 737.025C870.346 729.781 868.772 722.642 866.567 715.608C864.992 710.568 863.523 707.314 858.903 696.71C846.83 669.518 844.1 664.374 838.851 658.075C830.767 648.416 825.833 647.051 824.048 646.736C816.069 645.161 806.2 648.941 803.261 655.66C800.637 661.644 804.311 668.048 808.301 675.712C808.301 675.712 814.075 686.946 827.409 721.801C834.548 740.594 835.178 756.447 835.598 769.36C837.172 816.079 817.645 851.459 811.136 862.798C793.288 894.084 771.136 911.932 754.863 924.74C720.742 951.512 684.102 966.21 665.415 973.664C635.494 985.632 620.691 987.837 607.987 1004.42C598.117 1017.34 596.229 1030.46 592.974 1052.61C592.974 1052.61 587.514 1090.62 602.317 1134.71C605.047 1143.01 608.197 1150.15 615.23 1154.97C625.31 1161.8 637.802 1159.59 647.986 1157.81C661.844 1155.39 674.968 1149.72 687.251 1144.48C697.015 1140.28 703.839 1136.71 711.923 1139.12C715.388 1140.17 718.643 1142.17 723.263 1146.89C733.866 1157.91 739.535 1171.25 743.104 1184.48C749.089 1206.31 752.344 1218.6 745.519 1225.32C738.17 1232.56 721.582 1230.99 711.503 1224.9C704.574 1220.7 704.259 1216.39 696.49 1213.56C690.506 1211.35 685.991 1212.19 675.493 1213.14C666.779 1213.87 657.96 1213.98 649.246 1214.4C626.359 1215.55 614.916 1216.08 605.152 1215.66C591.714 1215.03 585.31 1213.66 581.32 1218.07C576.806 1223.01 579.745 1230.15 574.076 1234.66C570.716 1237.28 566.622 1237.39 561.898 1237.49C556.438 1237.6 550.14 1236.34 546.57 1234.24C537.856 1229.2 539.746 1216.29 537.226 1186.89C535.651 1167.89 534.602 1171.67 530.297 1135.55C529.457 1127.57 528.197 1119.7 526.413 1111.93C524.733 1104.48 523.578 1101.85 521.793 1093.87C520.218 1086.84 518.959 1079.6 518.119 1072.46C516.859 1062.17 513.814 1043.37 506.779 1006.52C506.779 1006.52 493.027 947.522 502.37 927.994C505.415 921.694 510.034 919.91 510.034 919.91C511.294 919.385 512.344 919.385 516.964 919.49C524.417 919.805 528.092 919.91 533.551 920.75C540.796 921.8 540.376 922.534 543.211 922.324C547.935 922.009 552.344 920.12 555.703 916.97C561.163 911.616 560.638 903.532 560.848 896.708C560.952 893.558 561.058 895.973 571.872 855.133C580.69 822.167 579.851 823.427 582.371 815.763C587.305 801.065 592.344 790.251 597.699 779.123C617.017 739.333 626.569 719.491 637.384 701.853C659.011 666.473 679.484 643.9 704.994 615.659C730.717 587.209 753.079 562.746 788.774 537.549C826.779 510.777 849.456 504.583 867.304 502.799C878.538 501.643 894.914 499.963 912.973 507.207C942.683 519.175 955.807 547.102 967.986 572.719C987.513 613.874 989.403 650.514 990.243 670.671C991.817 708.046 985.623 735.658 982.159 750.776C971.239 798.23 952.028 831.826 940.689 836.13C939.429 836.655 933.549 838.545 931.345 843.584C929.77 847.259 930.82 850.829 931.135 852.298C934.075 865.316 920.215 882.744 917.382 886.314C904.574 902.377 887.776 906.891 878.537 909.411C876.332 910.041 845.046 918.125 839.272 907.837C837.067 903.847 839.797 899.123 843.892 890.409L843.89 890.41Z"
    fill="#FF5252"
  />
  <path
    d="M596.23 710.77C596.335 714.865 596.125 718.854 595.81 722.948C594.025 744.155 586.991 756.754 577.857 777.751C567.883 800.743 562.004 814.181 557.07 833.604C553.92 845.992 549.826 858.066 547.516 870.664C544.786 885.572 544.892 892.291 539.327 895.756C533.238 899.536 528.513 894.076 509.931 893.656C500.273 893.446 493.028 894.706 485.679 899.536C478.855 904.05 474.97 909.404 473.816 912.239C471.916 916.68 470.985 921.476 471.086 926.306C472.452 980.059 471.926 987.723 469.722 991.083C466.152 996.543 454.394 999.377 436.546 1005.89C429.616 1008.41 411.559 1014.81 377.439 1021C357.177 1024.68 341.849 1027.51 320.221 1028.14C305.313 1028.77 290.51 1028.14 275.707 1026.15C258.594 1023.84 234.552 1020.58 209.356 1007.04C198.752 1001.37 161.902 981.529 144.579 937.96C132.611 907.829 135.865 881.162 137.545 868.144C140.378 846.126 148.128 825.028 160.222 806.412C168.306 794.129 183.529 771.871 213.03 759.168C228.778 752.448 245.89 749.509 263.004 750.664C299.539 753.394 340.694 776.176 349.618 809.246C350.668 813.026 355.602 833.288 344.998 848.091C343.424 850.296 338.804 856.805 333.659 856.175C328.305 855.545 326.52 847.881 319.066 834.023C312.872 822.474 309.723 816.7 304.263 811.346C289.775 797.278 269.723 797.278 267.623 797.278C246.416 797.593 232.873 811.136 227.203 816.7C222.899 821.004 205.681 838.537 206.206 865.834C206.311 869.299 206.941 891.661 224.054 909.508C242.322 928.721 267.204 929.98 281.272 930.505C313.503 931.765 339.434 919.586 367.046 903.523C369.763 901.951 372.458 900.341 375.13 898.693C423.53 868.458 463.32 834.127 487.47 811.135C504.058 795.282 508.992 789.193 529.36 770.715C545.213 756.332 547.628 755.072 556.656 745.623C564.636 737.223 570.199 730.4 580.908 721.791C585.738 717.801 590.882 714.127 596.236 710.767L596.23 710.77ZM883.05 1024.2C885.045 1022.73 889.244 1022.73 898.063 1022.62C904.257 1022.52 896.908 1022.62 910.871 1022.52C920.53 1022.41 922 1022.62 927.564 1022.52C930.189 1022.41 930.924 1022.41 935.963 1022.2C939.323 1022.1 944.047 1021.99 947.302 1021.99C948.877 1021.99 950.137 1023.25 950.137 1024.72V1024.83C950.032 1030.92 950.347 1037.11 950.032 1044.04C949.927 1047.09 949.927 1050.13 950.032 1053.07C950.137 1055.52 950.137 1057.97 950.032 1060.42C949.717 1067.03 949.612 1083.62 954.126 1108.29C955.281 1114.59 956.331 1119.74 960.636 1124.25C966.934 1130.87 976.173 1131.39 982.157 1131.81C994.65 1132.65 1004.73 1128.77 1016.28 1124.25C1031.71 1118.16 1034.76 1114.17 1042.53 1115.33C1045.36 1115.75 1051.76 1117.11 1059.74 1126.14C1065.62 1132.76 1068.35 1139.05 1073.6 1151.44C1076.44 1157.85 1078.75 1164.36 1080.64 1171.18C1084 1183.57 1085.57 1189.76 1083.57 1193.86C1077.9 1205.2 1046.52 1198.58 1040.32 1194.7C1037.49 1192.91 1034.23 1190.5 1034.23 1190.5C1032.34 1189.13 1030.77 1187.87 1029.72 1187.03C1025.83 1183.99 1023 1181.89 1022.05 1181.05C1021.53 1180.63 1020.9 1180.21 1020.37 1179.79C1020.06 1179.58 1019.74 1179.37 1019.32 1179.16C1017.96 1178.43 1016.59 1177.8 1015.12 1177.38C1013.23 1176.64 1011.24 1176.01 1009.14 1175.7C1007.57 1175.38 1007.25 1175.59 999.691 1175.49H994.967C993.917 1175.49 992.657 1175.59 988.353 1176.12C984.153 1176.64 981.843 1176.85 979.849 1177.17L973.234 1178.32C973.234 1178.32 963.366 1180.42 955.071 1181.58C951.501 1182.1 950.977 1182 947.932 1182.52C943.522 1183.36 941.318 1183.67 940.373 1184.41C935.963 1187.77 942.053 1196.59 938.799 1202.99C934.074 1211.92 911.922 1214.12 903.104 1204.57C899.639 1200.89 899.219 1196.38 898.694 1191.86C896.279 1171.29 892.71 1150.92 890.82 1130.34C889.98 1120.89 889.14 1112.07 887.146 1100.11C886.096 1093.6 884.101 1074.91 880.006 1037.64C879.482 1033.97 878.956 1027.25 883.051 1024.2L883.05 1024.2Z"
    fill="#FF5252"
  />
</svg>
